X:27
T:Major J. N. Bogart's Banquet
S:American Veteran Fifer, #27
C:By A.F. Hopkins Fife Major
M:2/4
L:1/16
Q:1/8=180
K:D 
%%MIDI program 72
%%MIDI transpose 8
%%MIDI ratio 3 1
|: AB  |  (dA2)A (BG2)G  |  BABc d2cd  |  efed efed  |  efge a2ga  |
ba2b agef  |  gedB A2GA  |  Bdef edBG  |  A6 :|
|: cd  |  ea2b agef  |  gafa gfed  |  ea2b afgb  |  a6 ed  |
ea2b agef  |  gedB G2A2  |  Bdef edBG  |  A6 :|


